polaris-icons/icons/new-icons/ArrowLeftMinor.svg

<svg width="20" height="20" viewBox="0 0 20 20" fill="none" xmlns="http://www.w3.org/2000/svg">
<path fill-rule="evenodd" clip-rule="evenodd" d="M16.75 10C16.75 10.4142 16.4142 10.75 16 10.75L6.31078 10.75L9.0307 13.4696C9.32361 13.7625 9.32363 14.2374 9.03075 14.5303C8.73787 14.8232 8.263 14.8232 7.97009 14.5304L3.96969 10.5304C3.82902 10.3897 3.75 10.1989 3.75 10C3.75 9.80107 3.82902 9.6103 3.96969 9.46964L7.97009 5.46964C8.263 5.17676 8.73787 5.17679 9.03075 5.4697C9.32363 5.7626 9.32361 6.23748 9.0307 6.53036L6.31078 9.25L16 9.25C16.4142 9.25 16.75 9.58579 16.75 10Z" fill="#4A4A4A"/>
</svg>

<svg viewBox="0 0 20 20" xmlns="http://www.w3.org/2000/svg"><path fill-rule="evenodd" d="M16.75 10a.75.75 0 0 1-.75.75h-9.69l2.72 2.72a.75.75 0 0 1-1.06 1.06l-4-4a.75.75 0 0 1 0-1.06l4-4a.75.75 0 0 1 1.06 1.06l-2.72 2.72h9.69a.75.75 0 0 1 .75.75Z" fill="#5C5F62"/></svg>
